!!!!SEGMENT: Ser2007-Quosque_non_reverteris_pax.krn
!!!id: Ser2007
!!!AGN: Motet
!!!SCT: Slim (1972)
!!!voices: 4
!!!COM: Claudin de Sermisy
!!!OTL: Quosque non reverteris pax
**kern	**kern	**kern	**kern
*part4	*part3	*part2	*part1
*staff4	*staff3	*staff2	*staff1
*I"Bassus	*I"Tenor	*I"Altus	*I"Superius
*I'B	*I'T	*I'A	*I'S
*clefF4	*clefGv2	*clefGv2	*clefG2
*k[b-]	*k[b-]	*k[b-]	*k[b-]
*F:	*F:	*F:	*F:
*M2/1	*M2/1	*M2/1	*M2/1
*met(C|)	*met(C|)	*met(C|)	*met(C|)
!!section: Prima pars: Quosque non reverteris pax
!!!OMD: Prima pars: Quosque non reverteris pax
=1	=1	=1	=1
0r	0r	0G	0r
=2	=2	=2	=2
0r	0r	1.c	1r
.	.	.	[1g
.	.	4B-y	.
.	.	4A	.
=3	=3	=3	=3
0r	0r	2B-y	1g]
.	.	2c	.
.	.	1G	[1b-y
=4	=4	=4	=4
0r	0r	1.d	2b-]
.	.	.	4a
.	.	.	4g
.	.	.	2a
.	.	2d	2b-y
=5	=5	=5	=5
0r	0r	1e	1g
.	.	1c	2r
.	.	.	[2a
=6	=6	=6	=6
0r	0r	1d	2a]
.	.	.	2a
.	.	2r	1b-y
.	.	[2G	.
=7	=7	=7	=7
0r	0r	2G]	1g
.	.	1c	.
.	.	.	1a
.	.	2A	.
=8	=8	=8	=8
0r	0r	1.B-y	2r
.	.	.	1d
.	.	2G	[2g
=9	=9	=9	=9
0D	0r	1B-y	2g]
.	.	.	4f
.	.	.	4e
.	.	1A	1f
=10	=10	=10	=10
1.G	0r	2r	0d
.	.	1B-y	.
4F	.	4A	.
4E	.	4G	.
=11	=11	=11	=11
2F	0r	2A	2.d
2G	.	2B-y	.
.	.	.	4e
1D	.	2A	4f
.	.	.	4g
.	.	[2d	[2f
=12	=12	=12	=12
0r	0A	2d]	2f]
.	.	4c	4e
.	.	4B-y	4d
.	.	1c	1e
=13	=13	=13	=13
0r	1.d	2r	2.f
.	.	1f	.
.	.	.	4g
.	.	.	[1a
.	4c	4e	.
.	4B-y	4d	.
=14	=14	=14	=14
2r	2c	2e	1a]
1D	2d	2.f	.
.	1A	.	1r
.	.	4e	.
2D	.	4d	.
.	.	4c	.
=15	=15	=15	=15
1E	1r	2B-y	0r
.	.	2.c	.
1C	2r	.	.
.	.	4B-y	.
.	[2A	4A	.
.	.	4G	.
=16	=16	=16	=16
1D	2A]	1F	0r
.	2A	.	.
2r	1B-y	1G	.
[2GG	.	.	.
=17	=17	=17	=17
2GG]	1G	0r	0r
1C	.	.	.
.	1A	.	.
2AA	.	.	.
=18	=18	=18	=18
1.BB-y	2r	0r	0r
.	1D	.	.
2C	[2G	.	.
=19	=19	=19	=19
1D	2G]	1A	2r
.	2F#i	.	1d
1GG	2.G	1B-y	.
.	.	.	[2g
.	4A	.	.
=20	=20	=20	=20
0r	2B-y	2G	2g]
.	2.c	1A	2e
.	.	.	2f
.	4A	.	.
.	[2d	2F	4e
.	.	.	4d
=21	=21	=21	=21
0r	2d]	2G	1e
.	2c#i	2A	.
.	1d	1D	[1d
=22	=22	=22	=22
0D	0A	1r	1d]
.	.	[1d	1f
=23	=23	=23	=23
1BB-y	1B-y	1d]	1f
1GG	1B-y	1d	[1g
=24	=24	=24	=24
1C	1c	1e	1g]
1BB-y	1d	1f	1b-y
=25	=25	=25	=25
1.F	1.c	1.f	1.a
2G	2B-y	2d	2g
=26	=26	=26	=26
0D	0A	1d	[0f
.	.	2r	.
.	.	2d	.
=27	=27	=27	=27
2r	1r	2d	1f]
2D	.	2d	.
2D	2r	2.f	1r
2D	2A	.	.
.	.	4e	.
=28	=28	=28	=28
0F	2A	1c	1r
.	2A	.	.
.	1c	[1f	2r
.	.	.	2a
=29	=29	=29	=29
1D	1d	1f]	2a
.	.	.	2a
1C	2.G	1e	1cc
.	4F	.	.
=30	=30	=30	=30
2r	4G	1d	1b-y
.	4A	.	.
1G	1B-y	.	.
.	.	2e	2g
2F	2c	2f	[2a
=31	=31	=31	=31
2G	2B-y	2d	4a]
.	.	.	4g
2E	2G	2c	1g
1D	1A	1d	.
.	.	.	2f#i
=32	=32	=32	=32
[0GG	0G	1B-y	[0g
.	.	1r	.
=33	=33	=33	=33
1GG]	1r	1G	0g]
1r	1C	[1c	.
=34	=34	=34	=34
0r	1.G	2c]	0r
.	.	4B-y	.
.	.	4A	.
.	.	2B-y	.
.	4F	2c	.
.	4E	.	.
=35	=35	=35	=35
0r	2F	2A	0r
.	2G	1d	.
.	1D	.	.
.	.	2f	.
=36	=36	=36	=36
0r	2r	4e	0r
.	.	4d	.
.	1A	4c	.
.	.	4B-y	.
.	.	4A	.
.	.	4G	.
.	2c	4F	.
.	.	4E	.
=37	=37	=37	=37
0r	2.B-y	2D	0r
.	.	1d	.
.	4A	.	.
.	2G	.	.
.	2A	2c	.
=38	=38	=38	=38
2r	1B-y	1d	0r
1D	.	.	.
.	1A	2r	.
2F	.	2c	.
=39	=39	=39	=39
1E	1r	2c	1g
.	.	2c	.
[1D	2r	4d	2b-y
.	.	4c	.
.	2A	4d	[2a
.	.	4e	.
=40	=40	=40	=40
1D]	2A	2f	2a]
.	2A	2f	1f
2r	4B-y	2.d	.
.	4A	.	.
2D	4B-y	.	2f
.	4c	4c	.
=41	=41	=41	=41
2D	2d	1A	2f
2D	2d	.	2f
4E	1c	1r	4g
4D	.	.	4f
4E	.	.	4g
4F	.	.	4a
=42	=42	=42	=42
2G	1B-y	1r	2b-y
2G	.	.	2b-y
1F	1r	1c	2a
.	.	.	[2cc
=43	=43	=43	=43
0r	1G	2d	2cc]
.	.	2d	2b-y
.	2A	1f	2.cc
.	2A	.	.
.	.	.	4b-y
=44	=44	=44	=44
1C	1c	1e	1g
2D	1B-y	1d	1r
2D	.	.	.
=45	=45	=45	=45
1F	1A	1r	0r
1E	2r	1c	.
.	2G	.	.
=46	=46	=46	=46
0D	1B-y	1.d	1f
.	1A	.	[1a
.	.	2d	.
=47	=47	=47	=47
0r	4D	1f	2a]
.	4E	.	.
.	4F	.	2a
.	4G	.	.
.	4A	1e	1cc
.	4B-y	.	.
.	2c	.	.
=48	=48	=48	=48
0r	1G	2d	1b-y
.	.	2d	.
.	2r	1f	1a
.	2F	.	.
=49	=49	=49	=49
0r	1c	1e	2r
.	.	.	2g
.	2B-y	1d	1b-y
.	2G	.	.
=50	=50	=50	=50
1r	2.d	0r	1a
.	4e	.	.
2r	2f	.	2d
2G	[2e	.	2g
=51	=51	=51	=51
1B-y	2e]	2r	2f
.	1d	2G	2d
1A	.	1c	1e
.	2c#i	.	.
=52	=52	=52	=52
2D	1d	1B-y	1d
2G	.	.	.
2F	1r	2A	2r
2D	.	[2d	2f
=53	=53	=53	=53
1E	0r	2d]	1g
.	.	2c#i	.
1D	.	1d	[1f
=54	=54	=54	=54
1r	0A	1r	1f]
[1D	.	[1d	[1f
=55	=55	=55	=55
1D]	1F	1d]	1f]
1C	1c	1e	1g
=56	=56	=56	=56
1F	1.c	1f	1a
[1F	.	2f	[1a
.	2c	2f	.
=57	=57	=57	=57
2F]	1A	1c	2a]
2F	.	.	2a
1D	2r	[1f	1f
.	[2d	.	.
=58	=58	=58	=58
1.G	4d]	2f]	1.b-y
.	4c	.	.
.	4B-y	4e	.
.	4A	4d	.
.	2B-y	2e	.
2G	2B-y	2e	2b-y
=59	=59	=59	=59
0F	0c	0f	0a
=60	=60	=60	=60
0r	0r	1r	1a
.	.	1d	2a
.	.	.	2a
=61	=61	=61	=61
0r	0r	2d	1f
.	.	2d	.
.	.	1c	2r
.	.	.	2g
=62	=62	=62	=62
0r	0r	2r	2b-y
.	.	2d	2b-y
.	.	2f	1a
.	.	2f	.
=63	=63	=63	=63
1A	0r	1e	1cc
2A	.	1c	2.cc
2A	.	.	.
.	.	.	4b-y
=64	=64	=64	=64
1F	0r	2d	4a
.	.	.	4g
.	.	1f	1a
2r	.	.	.
2G	.	[2e	[2g
=65	=65	=65	=65
2B-y	0r	4e]	2g]
.	.	4d	.
2B-y	.	1d	1f
1A	.	.	.
.	.	4c#i	4e
.	.	4Bni	4d
=66	=66	=66	=66
1r	1A	1c#i	1e
1D	2A	[1d	[1f
.	2A	.	.
=67	=67	=67	=67
2D	1F	1d]	1f]
2D	.	.	.
1C	2r	1r	1r
.	[2c	.	.
=68	=68	=68	=68
1G	2c]	0r	1r
.	2B-y	.	.
2F	2A	.	2r
2D	[2d	.	2a
=69	=69	=69	=69
1A	2d]	2r	2a
.	2c#i	2A	2a
[1D	2d	2A	1f
.	2A	2A	.
=70	=70	=70	=70
0D]	2A	1F	1a
.	2A	.	.
.	1F	1d	2b-y
.	.	.	[2a
=71	=71	=71	=71
0r	0r	2c	4a]
.	.	.	4f
.	.	1B-y	4g
.	.	.	4a
.	.	.	2d
.	.	4A	[2g
.	.	4G	.
=72	=72	=72	=72
1D	1d	2A	2g]
.	.	2A	2f#i
2E	2c	1G	1g
[2G	[2B-y	.	.
=73	=73	=73	=73
2G]	2B-]	1r	0r
4F	4A	.	.
4E	4G	.	.
2F	2A	1d	.
2G	2B-y	.	.
=74	=74	=74	=74
1C	1c	2e	1g
.	.	2e	.
1r	1r	1f	2a
.	.	.	2a
=75	=75	=75	=75
0r	0r	2d	1b-y
.	.	1g	.
.	.	.	2g
.	.	2f	[2cc
=76	=76	=76	=76
1r	0r	2e	2cc]
.	.	2d	2b-y
2r	.	2c	2a
2D	.	2d	2f
=77	=77	=77	=77
2E	1r	4c	1g
.	.	4A	.
2E	.	2B-y	.
1F	2r	1A	1a
.	[2c	.	.
=78	=78	=78	=78
1D	2c]	2r	2.f
.	2B-y	2d	.
.	.	.	4g
1r	1A	2e	1a
.	.	2e	.
=79	=79	=79	=79
0r	1F	1f	2r
.	.	.	1cc
.	1G	2d	.
.	.	[2g	2b-y
=80	=80	=80	=80
0r	1d	2g]	1a
.	.	2f	.
.	2r	2e	2.g
.	2G	[2d	.
.	.	.	4f
=81	=81	=81	=81
0r	2A	2d]	1e
.	2A	2c#i	.
.	1B-y	2d	2d
.	.	2G	[2b-y
=82	=82	=82	=82
1r	1G	2.B-y	4b-]
.	.	.	4a
.	.	.	1g
.	.	4c	.
1D	1r	1A	.
.	.	.	2f#i
=83	=83	=83	=83
2E	1r	2G	1g
2E	.	2.c	.
1F	2r	.	1r
.	.	4B-y	.
.	[2c	4A	.
.	.	4G	.
=84	=84	=84	=84
2D	2c]	2F	0r
1G	2B-y	2G	.
.	2A	1D	.
2F	[2d	.	.
=85	=85	=85	=85
2E	2d]	0r	0r
1A	2c#i	.	.
.	2d	.	.
[2G	2B-y	.	.
=86	=86	=86	=86
2G]	1A	2r	0r
2F#i	.	1d	.
1G	1B-y	.	.
.	.	2d	.
=87	=87	=87	=87
1.D	2r	1d	1.f
.	1A	.	.
.	.	2r	.
2D	2A	2d	2f
=88	=88	=88	=88
1D	0A	2d	2.f
.	.	2d	.
.	.	.	8eL
.	.	.	8dJ
1r	.	2.c	1e
.	.	4B-y	.
=89	=89	=89	=89
1D	0r	2.A	0d
.	.	8GL	.
.	.	8AJ	.
2D	.	2B-y	.
2D	.	[2A	.
=90	=90	=90	=90
2C	1r	2A]	0r
2BB-y	.	2G	.
2.AA	2r	1A	.
.	2c	.	.
4BB-y	.	.	.
=91	=91	=91	=91
4C	2c	0r	0r
4D	.	.	.
4E	2c	.	.
4F	.	.	.
2G	2.B-y	.	.
4GG	.	.	.
4AA	4A	.	.
=92	=92	=92	=92
4BB-y	2G	0r	1r
4C	.	.	.
2.D	2.B-y	.	.
.	.	.	2r
4C	4A	.	.
4BB-y	[2A	.	2dd
4AA	.	.	.
=93	=93	=93	=93
1BB-y	2A]	1r	2dd
.	2G	.	2dd
[1AA	[1A	2r	2.cc
.	.	2c	.
.	.	.	4b-y
=94	=94	=94	=94
1AA]	1A]	2c	4a
.	.	.	4g
.	.	2c	4f
.	.	.	4e
1r	1r	2.B-y	2d
.	.	.	[2dd
.	.	4A	.
=95	=95	=95	=95
0r	0r	2G	4dd]
.	.	.	4cc
.	.	2B-y	4b-y
.	.	.	4a
.	.	2c	2g
.	.	[2d	[2b-y
=96	=96	=96	=96
0G	0r	4d]	2b-]
.	.	4c	.
.	.	4B-y	1a
.	.	4A	.
.	.	1B-y	.
.	.	.	2g
=97	=97	=97	=97
1F	0d	0A	1a
1D	.	.	1f
=98	=98	=98	=98
1E-i	1c	2r	1g
.	.	2G	.
1C	1A	1c	1a
=99	=99	=99	=99
1BB-y	1B-y	2F	2d
.	.	2.B-y	2.dd
1r	1G	.	.
.	.	4A	4cc
.	.	4B-y	2b-y
.	.	4c	.
=100	=100	=100	=100
0r	0F	1d	2a
.	.	.	1b-y
.	.	1c	.
.	.	.	2a
=101	=101	=101	=101
2r	1r	0B-y	0b-y
2BB-y	.	.	.
2GG	2r	.	.
2GG	2B-y	.	.
=102	=102	=102	=102
2.C	2G	0r	0r
.	2G	.	.
4BB-y	.	.	.
1AA	2.c	.	.
.	4B-y	.	.
=103	=103	=103	=103
2r	1A	0r	0r
2D	.	.	.
1E	2r	.	.
.	2G	.	.
=104	=104	=104	=104
1F	1A	1r	2r
.	.	.	2f
1G	1B-y	2r	2d
.	.	2B-y	2d
=105	=105	=105	=105
1.C	1c	2G	2.g
.	.	2G	.
.	.	.	4f
.	1G	2.c	2e
2C	.	.	2e
.	.	4B-y	.
=106	=106	=106	=106
1D	0r	2A	1f
.	.	2A	.
1GG	.	1B-y	1g
=107	=107	=107	=107
1r	1F	1c	1a
2r	2D	1d	1r
2BB-y	2D	.	.
=108	=108	=108	=108
2GG	2.G	2B-y	2r
2GG	.	2G	2b-y
.	4F	.	.
2.C	1E	2G	2g
.	.	[2c	2g
4BB-y	.	.	.
=109	=109	=109	=109
1AA	2r	4c]	2.cc
.	.	4B-y	.
.	2E	2A	.
.	.	.	4b-y
1D	1F	1r	1a
=110	=110	=110	=110
2.E	2.G	1B-y	0r
4D	4B-y	.	.
2C	2A	1c	.
2BB-y	[2G	.	.
=111	=111	=111	=111
1AA	4G]	2c	1a
.	8F#iL	.	.
.	8EJ	.	.
.	2F#i	2c	.
1GG	[1G	2.B-y	1b-y
.	.	4c	.
=112	=112	=112	=112
1r	1G]	2d	2b-y
.	.	2e	2b-y
1D	1r	2f	2a
.	.	[2d	2f
=113	=113	=113	=113
1E	0r	2d]	1g
.	.	4c#i	.
.	.	4Bni	.
2E	.	1c#i	1g
2E	.	.	.
=114	=114	=114	=114
1.D	1A	[0d	0f
.	1B-y	.	.
2D	.	.	.
=115	=115	=115	=115
4GG	2B-y	0d]	0r
4AA	.	.	.
4BB-y	2B-y	.	.
4C	.	.	.
4D	2.A	.	.
4E	.	.	.
4F	.	.	.
4G	4B-y	.	.
=116	=116	=116	=116
2A	2c	0r	0r
2.B-y	2.d	.	.
4A	4c	.	.
[2G	4d	.	.
.	4B-y	.	.
=117	=117	=117	=117
2G]	1c	1A	1r
2F#i	.	.	.
[1G	[1B-y	[1d	2r
.	.	.	2g
=118	=118	=118	=118
1G]	1B-]	2d]	1.dd
.	.	2d	.
1D	1r	1d	.
.	.	.	2dd
=119	=119	=119	=119
1.G	2r	0B-y	1dd
.	2G	.	.
.	[1d	.	[1b-y
2G	.	.	.
=120	=120	=120	=120
1G	2d]	1r	1b-]
.	2d	.	.
1D	1d	[1f	[1a
=121	=121	=121	=121
1.F	1c	2f]	2a]
.	.	2f	2a
.	[1c	1f	1a
2F	.	.	.
=122	=122	=122	=122
1F	2c]	0f	0a
.	2c	.	.
1F	1c	.	.
=123	=123	=123	=123
1C	1c	1e	1g
1D	2A	1d	1f
.	2F	.	.
=124	=124	=124	=124
0E-X	0G	0B-y	0e-X
=125	=125	=125	=125
0BB-y	0F	0B-y	0d
=126	=126	=126	=126
1r	1r	1.B-y	1.d
[1GG	[1G	.	.
.	.	2B-y	2d
=127	=127	=127	=127
2GG]	2G]	1B-y	1g
2GG	2G	.	.
1C	1G	[1c	[1e
=128	=128	=128	=128
1AA	1A	1c]	1e]
1D	2A	1d	1f
.	[2B-y	.	.
=129	=129	=129	=129
0E	4B-]	1B-y	0g
.	4A	.	.
.	4G	.	.
.	4F	.	.
.	1G	1c	.
=130	=130	=130	=130
[0D	0A	1d	[0f
.	.	2r	.
.	.	[2d	.
=131	=131	=131	=131
1D]	2r	2d]	1f]
.	1d	2d	.
[1G	.	2.B-y	[1g
.	2d	.	.
.	.	4c	.
=132	=132	=132	=132
2G]	1B-y	2d	2g]
2G	.	2e	2g
1F	1c	[1f	1a
=133	=133	=133	=133
1D	2.d	2f]	2b-y
.	.	1d	1a
.	4c	.	.
1E	2B-y	.	.
.	2G	2c#i	[2g
=134	=134	=134	=134
0D	2.B-y	0d	2g]
.	.	.	4f#i
.	4c	.	4e
.	1A	.	1f#i
=135	=135	=135	=135
0GG	0G	0B-y	0g
=136	=136	=136	=136
1r	1r	1.B-y	1.d
[1GG	[1G	.	.
.	.	2B-y	2d
=137	=137	=137	=137
2GG]	2G]	1B-y	1g
2GG	2G	.	.
1C	1G	[1c	[1e
=138	=138	=138	=138
1AA	1A	1c]	1e]
1D	2A	1d	1f
.	[2B-y	.	.
=139	=139	=139	=139
0E	4B-]	1B-y	0g
.	4A	.	.
.	4G	.	.
.	4F	.	.
.	1G	1c	.
=140	=140	=140	=140
[0D	0A	1d	[0f
.	.	2r	.
.	.	[2d	.
=141	=141	=141	=141
1D]	2r	2d]	1f]
.	1d	2d	.
[1G	.	2.B-y	[1g
.	2d	.	.
.	.	4c	.
=142	=142	=142	=142
2G]	1B-y	2d	2g]
2G	.	2e	2g
1F	1c	[1f	1a
=143	=143	=143	=143
1D	2.d	2f]	2b-y
.	.	1d	1a
.	4c	.	.
1E	2B-y	.	.
.	2G	2c	[2g
=144	=144	=144	=144
0D	2.B-y	0d	2g]
.	.	.	4f#i
.	4c	.	4e
.	1A	.	1f#i
=145	=145	=145	=145
00GGl	00Gl	00B-yl	00gl
==	==	==	==
*-	*-	*-	*-
!!!system-decoration: [*]
!!!RDF**kern: i = editorial accidental
!!!RDF**kern: l = terminal long
!!!ENC: Benjamin Ory
!!!END: 2021/1/8
!!!EED: Benjamin Ory
!!!EEV: 2021/04/27
!!!YEC: Copyright 2021 Benjamin Ory, All Rights Reserved
!!!ONB: Translated from MusicXML on 2021/04/27
